X:92
%%vocalfont Baskerville10Pro 11
%%pagewidth 7.5in
T:The Jovial Tinker
M:6/8
L:1/8
K:D
%%score 1 2
V:1 clef-treble
V:2 clef-bass octave=-1
V:1
D|D2[Fd][Fc]2[GB]|[DA]3[B,G]2G|G2GF2F&C>DEA,2x|
w:There was a jo-vial tin-ker, Who was a good ale
V:2
D|D2BA2G|F3E3|A,>B,CD2F|
V:1
[DF]3[CE]2D|D2[Ad][Gc]2[Fd]|[EAe]3[Ec]2[EA]|(B>c)[Ad][Gd]2[Gc]&Dx2x3|[A,F]3-[A,F]2||
w:drink-er, He ne-ver was a shrink-er, Be-lie-ve me, this is true.*
V:2
A3A,2D|D2FE2D|C3A2F|G2FE2A|D3-D2||
V:1
[Fd]|[Fd]2[Fd][F^Ac]2[FAc]|[DB]2[DB][DFA]2[DF]|G>FG[CA]2A&Dx2x3|[DA]2FD2D|
w:And he came from the Weald of Kent, When all* his money was gone and spent, Which
V:2
B|B2BF2F|G2GD2D|E3[A,G]3|[DF]3-[DF]2D|
V:1
D2[Ad][Gc]2[Fd]|[EAe]2d[EAc]2[EA]|B>c[Ad][Gd]2[Gc]&Dx2x3|[Fd]3-[Fd]2[EA]|
w:made him look like~a Jack a-lent. And Joan's** ale is new,* And
V:2
D2FE2D|C3A2F|G2FE2A|D3-D2C|
V:1
(d2d)[Fc]2[GB]&F2x4|[B,A]2[CG][DF]2D|(G>FG)[CA]2A&Dx2x3|D3-D2||
w:Joan's* ale is new, my boys, And Joan's** ale is new.*
V:2
B,2BA2G|F2ED2F|E3[A,G]3|[DF]3-[DF]2||

